packages/foundations/assets/icons/functional/images/transportation/ship_24_inverted.svg

<svg width="24" height="24" viewBox="0 0 24 24" fill="none" xmlns="http://www.w3.org/2000/svg">
<g clip-path="url(#clip0_2214_7263)">
<path fill-rule="evenodd" clip-rule="evenodd" d="M5.81207 18.8128C5.91493 18.9044 6.11932 19.0603 6.38283 19.2166C6.73224 19.4237 7.11253 19.5977 7.49703 19.5977C7.88152 19.5977 8.26077 19.4236 8.6104 19.2164C8.69834 19.1643 8.8692 19.0738 9.18217 18.8124C9.49514 18.551 9.97106 18.5313 10.3115 18.8123C10.6519 19.0934 10.7955 19.1643 10.8834 19.2164C11.2327 19.4234 11.6348 19.5983 11.9958 19.5977C12.3567 19.5971 12.703 19.4577 13.1103 19.2164C13.1689 19.1817 13.3596 19.047 13.6823 18.8123C14.0042 18.5263 14.489 18.5262 14.8111 18.812C15.1342 19.0468 15.3251 19.1816 15.3838 19.2164C15.7314 19.4222 16.1483 19.5981 16.4911 19.5977C16.8338 19.5972 17.2029 19.4578 17.6103 19.2164C17.6689 19.1817 17.8596 19.047 18.1823 18.8123C18.5043 18.5262 18.9894 18.5262 19.3115 18.8123C19.6341 19.047 19.8248 19.1817 19.8834 19.2164C20.2326 19.4233 20.7105 19.5555 20.9969 19.5893C21.4602 19.6043 21.8469 19.9783 21.8469 20.4477C21.8469 20.881 21.5194 21.2977 20.9969 21.2977C20.2759 21.2977 19.5259 21.0346 18.7469 20.5083C17.9479 21.0385 17.1928 21.3016 16.4817 21.2977C15.7706 21.2937 15.0256 21.0306 14.2469 20.5083C13.4528 21.0353 12.7042 21.2984 12.0011 21.2977C11.2981 21.297 10.5467 21.0338 9.74687 20.5083C8.94534 21.0346 8.19547 21.2977 7.49726 21.2977C6.79904 21.2977 6.04891 21.0346 5.24687 20.5083C4.45089 21.0346 3.70089 21.2977 2.99687 21.2977C2.52743 21.2977 2.14687 20.9171 2.14687 20.4477C2.14687 20.0144 2.45869 19.5977 2.99687 19.5977C3.4367 19.5581 3.70326 19.4582 4.1109 19.2166C4.37442 19.0603 4.5788 18.9044 4.68166 18.8128C5.00387 18.526 5.48986 18.526 5.81207 18.8128ZM15.2782 2.70227C15.6309 2.70227 15.9876 2.92837 16.0689 3.24032C16.1231 3.44829 16.2277 3.86927 16.3828 4.50327L6.69175 4.51082C6.27263 4.56327 5.94837 4.92087 5.94837 5.3542C5.94837 5.78753 6.27263 6.14513 6.69175 6.19758L16.7928 6.20327L17.6239 9.59727L20.9969 9.5977C21.3941 9.5977 21.7867 9.86632 21.8403 10.3411C21.9421 11.4245 21.4269 13.1071 20.7185 14.4046C20.3203 15.1338 19.8865 15.7566 19.4886 16.2441C19.2145 16.5939 18.8655 16.9002 18.4416 17.1629C17.8057 17.557 17.235 17.7977 16.3828 17.7977C15.8147 17.7977 15.1024 17.5349 14.2459 17.0093C13.451 17.5349 12.7028 17.7977 12.0011 17.7977C11.2995 17.7977 10.5474 17.5349 9.74487 17.0093C8.94931 17.5347 8.2001 17.7976 7.49726 17.7977C6.79441 17.7979 6.0442 17.5354 5.24663 17.0102C4.44293 17.5352 3.69301 17.7977 2.99687 17.7977C2.325 17.7977 2.14685 17.3515 2.14685 16.9741V10.3793L15.1826 10.3727C15.6018 10.3202 15.926 9.96265 15.926 9.52932C15.926 9.09599 15.6018 8.7384 15.1826 8.68594L2.14685 8.67927V3.55227C2.14685 3.11894 2.50054 2.70227 2.99687 2.70227H15.2782ZM12.7881 12.8656C12.153 12.8656 11.6381 13.3804 11.6381 14.0156C11.6381 14.6507 12.153 15.1656 12.7881 15.1656C13.4232 15.1656 13.9381 14.6507 13.9381 14.0156C13.9381 13.3804 13.4232 12.8656 12.7881 12.8656ZM16.7881 12.8656C16.153 12.8656 15.6381 13.3804 15.6381 14.0156C15.6381 14.6507 16.153 15.1656 16.7881 15.1656C17.4232 15.1656 17.9381 14.6507 17.9381 14.0156C17.9381 13.3804 17.4232 12.8656 16.7881 12.8656ZM8.78809 12.8656C8.15296 12.8656 7.63809 13.3804 7.63809 14.0156C7.63809 14.6507 8.15296 15.1656 8.78809 15.1656C9.42321 15.1656 9.93809 14.6507 9.93809 14.0156C9.93809 13.3804 9.42321 12.8656 8.78809 12.8656ZM4.78809 12.8656C4.15296 12.8656 3.63809 13.3804 3.63809 14.0156C3.63809 14.6507 4.15296 15.1656 4.78809 15.1656C5.42321 15.1656 5.93809 14.6507 5.93809 14.0156C5.93809 13.3804 5.42321 12.8656 4.78809 12.8656Z" fill="#1A1C1F"/>
</g>
<defs>
<clipPath id="clip0_2214_7263">
<rect width="24" height="24" fill="white"/>
</clipPath>
</defs>
</svg>

<svg xmlns="http://www.w3.org/2000/svg" width="24" height="24" fill="none"><g clip-path="url(#a)"><path fill="#1A1C1F" fill-rule="evenodd" d="M5.812 18.813c.103.091.307.247.57.404.35.207.73.38 1.115.38s.764-.173 1.113-.38c.088-.053.26-.143.572-.405a.885.885 0 0 1 1.13 0c.34.281.484.352.571.404.35.207.752.382 1.113.382.36 0 .707-.14 1.114-.382q.089-.051.572-.404a.85.85 0 0 1 1.13 0q.483.353.572.404c.347.206.764.382 1.107.382s.712-.14 1.12-.382q.087-.051.571-.404a.85.85 0 0 1 1.13 0q.484.353.571.404c.35.207.828.34 1.114.373.463.015.85.39.85.859 0 .433-.328.85-.85.85q-1.082 0-2.25-.79-1.2.796-2.265.79t-2.235-.79q-1.191.79-2.246.79-1.054-.001-2.254-.79-1.203.79-2.25.79t-2.25-.79q-1.194.79-2.25.79a.85.85 0 0 1-.85-.85c0-.434.312-.85.85-.85.44-.04.706-.14 1.114-.381.263-.157.468-.313.57-.404a.85.85 0 0 1 1.131 0m9.466-16.11c.353 0 .71.225.79.537q.083.313.315 1.263l-9.691.008a.85.85 0 0 0 0 1.687l10.1.005.832 3.394h3.373c.397 0 .79.27.843.744.102 1.084-.413 2.766-1.122 4.064a12 12 0 0 1-1.23 1.84q-.41.524-1.046.918c-.636.394-1.207.635-2.06.635q-.851 0-2.136-.789-1.192.789-2.245.789-1.052 0-2.256-.789-1.194.789-2.248.789t-2.25-.788q-1.206.788-2.25.788c-.672 0-.85-.446-.85-.824V10.38l13.036-.006a.85.85 0 0 0 0-1.687L2.147 8.679V3.552c0-.433.354-.85.85-.85zm-2.49 10.163a1.15 1.15 0 1 0 0 2.3 1.15 1.15 0 0 0 0-2.3m4 0a1.15 1.15 0 1 0 0 2.3 1.15 1.15 0 0 0 0-2.3m-8 0a1.15 1.15 0 1 0 0 2.3 1.15 1.15 0 0 0 0-2.3m-4 0a1.15 1.15 0 1 0 0 2.3 1.15 1.15 0 0 0 0-2.3" clip-rule="evenodd"/></g><defs><clipPath id="a"><path fill="#fff" d="M0 0h24v24H0z"/></clipPath></defs></svg>
